X:325
T: Die geladene Grtnerin (65b), S. 198
N: T0214
O: Luxemburg
S: Singendes Volk, Esch-Alzette 1937 posth.]
N: Straen, fff Witry, 10.1.1933
R: Liebeslieder]
M: 4/4
L: 1/8
K: G
D | G2BGD3D | E2FGG3E | E2D4z
D | DccdB2B2 | A2D2G2z
B | GABcd3D | G2B2d2B2 | B2A4z
D | DccdB2B2 | A2A2G2z
B | GABcd3D | G2B2d2B2 | B2A4z
D | DccdB2B2 | A2A2G2z

@@@ Tune index: 8379
